resources/svg/ms-powerpoint.svg

<svg xmlns="http://www.w3.org/2000/svg" viewBox="0 0 15 15" fill="currentColor"><path fill-rule="evenodd" clip-rule="evenodd" d="M5 5H2V10H3V9H5C6.10457 9 7 8.10457 7 7C7 5.89543 6.10457 5 5 5ZM5 8H3V6H5C5.55228 6 6 6.44772 6 7C6 7.55228 5.55228 8 5 8Z" fill="black"/><path fill-rule="evenodd" clip-rule="evenodd" d="M7.49983 0C5.0456 0 2.86687 1.17924 1.49932 3C0.671208 3.00037 0 3.6718 0 4.5V10.5C0 11.3282 0.671206 11.9996 1.49932 12C2.86687 13.8208 5.0456 15 7.49983 15C11.642 15 14.9998 11.6421 14.9998 7.5C14.9998 3.35786 11.642 0 7.49983 0ZM1 4.5C1 4.22386 1.22386 4 1.5 4H7.5C7.77165 4 7.99269 4.21663 7.99982 4.48655V10.5134C7.99269 10.7834 7.77165 11 7.5 11H1.5C1.22386 11 1 10.7761 1 10.5V4.5Z" fill="black"/></svg>

<svg xmlns="http://www.w3.org/2000/svg" viewBox="0 0 15 15" fill="currentColor"><path fill-rule="evenodd" clip-rule="evenodd" d="M5 5H2v5h1V9h2a2 2 0 100-4zm0 3H3V6h2a1 1 0 010 2z" fill="currentColor"/><path fill-rule="evenodd" clip-rule="evenodd" d="M7.5 0a7.49 7.49 0 00-6 3A1.5 1.5 0 000 4.5v6A1.5 1.5 0 001.5 12a7.5 7.5 0 106-12zM1 4.5a.5.5 0 01.5-.5h6a.5.5 0 01.5.487v6.026a.5.5 0 01-.5.487h-6a.5.5 0 01-.5-.5v-6z" fill="currentColor"/></svg>
